src/assets/img/Icon/Expand.svg

<?xml version="1.0" encoding="UTF-8"?>
<svg width="256px" height="256px" viewBox="0 0 256 256" version="1.1" xmlns="http://www.w3.org/2000/svg" xmlns:xlink="http://www.w3.org/1999/xlink">
    <!-- Generator: Sketch 57.1 (83088) - https://sketch.com -->
    <title>Icon / Expand</title>
    <desc>Created with Sketch.</desc>
    <g id="Icon-/-Expand" stroke="none" stroke-width="1" fill="none" fill-rule="evenodd">
        <path d="M245.333333,106.666667 L149.333333,106.666667 L149.333333,10.6666667 C149.333333,4.77333333 144.56,0 138.666667,0 L117.333333,0 C111.44,0 106.666667,4.77333333 106.666667,10.6666667 L106.666667,106.666667 L10.6666667,106.666667 C4.77333333,106.666667 0,111.44 0,117.333333 L0,138.666667 C0,144.56 4.77333333,149.333333 10.6666667,149.333333 L106.666667,149.333333 L106.666667,245.333333 C106.666667,251.226667 111.44,256 117.333333,256 L138.666667,256 C144.56,256 149.333333,251.226667 149.333333,245.333333 L149.333333,149.333333 L245.333333,149.333333 C251.226667,149.333333 256,144.56 256,138.666667 L256,117.333333 C256,111.44 251.226667,106.666667 245.333333,106.666667 Z" id="Path" fill="#FFFFFF" fill-rule="nonzero"></path>
    </g>
</svg>

<svg width="256" height="256" xmlns="http://www.w3.org/2000/svg"><path d="M245.333 106.667h-96v-96C149.333 4.773 144.56 0 138.667 0h-21.334c-5.893 0-10.666 4.773-10.666 10.667v96h-96C4.773 106.667 0 111.44 0 117.333v21.334c0 5.893 4.773 10.666 10.667 10.666h96v96c0 5.894 4.773 10.667 10.666 10.667h21.334c5.893 0 10.666-4.773 10.666-10.667v-96h96c5.894 0 10.667-4.773 10.667-10.666v-21.334c0-5.893-4.773-10.666-10.667-10.666z" fill="#FFF"/></svg>
